!!!!SEGMENT: pl-sa--481-a-viii-121--036_anonim--ariette.krn
!!!cenid: 18xx:407
!!!COM: Anonim
!!!COM-rismid: pe30004985
!!!CDT:
!!!CNT:
!!!OTL: Ariette
!!!PDT:
!!!AGN: Secular
!!!SMS-siglum: PL-SA
!!!SMS-shelfmark: 481/A VIII 121
!!!SMS-shelfwork: 036 W
!!!SMS-variant:
!!!SMS-altvar:
!!!NIFC-rismid: 1001070710
!!!URL-scan: http://bc.bdsandomierz.pl/dlibra/publication/1212/edition/1171/content
!!!ONB-nifc: Str. 24, s. 4-5
**kern	**kern
*part1	*part1
*staff2	*staff1
*Ipiano	*Iempty
*I"Pianoforte	*
*I'P-no	*
*clefF4	*clefG2
*k[b-]	*k[b-]
*F:	*F:
*M3/4	*M3/4
=1	=1
!LO:TX:t=P:problem:bemol (klucz basowy) na trzeciej linii	!LO:TX:t=P:problem:nieprawidłowe metrum wpisane w źródle
!LO:TX:t=Aryietto	!
8F\L	8a/L 8cc
8F\	8a/ 8cc
8F\	8b-/ 8dd
8F\J	8b-/J 8dd
=2	=2
8F\L	8a/L 8cc
8F\J	8a/J 8cc
4F\	4a/ 4cc 4ff
=3	=3
*2\right	*
*tremolo	*
8c\L	8g/L 8b-
8c\	8g/ 8b-
8c\	8f/ 8a
8c\J	8f/J 8a
*Xtremolo	*
=4	=4
8c\L	8e/L 8g
8c\J	8e/J 8g
4c\	4e/ 4g
=5	=5
*tremolo	*
8F\L	8a/L 8cc
8F\	8a/ 8cc
8F\	8b-/ 8dd
8F\J	8b-/J 8dd
*Xtremolo	*
=6	=6
8F\L	8a/L 8cc
8F\J	8a/J 8cc
4F\	4cc\ 4ff 4aa
=7	=7
*	*^
*tremolo	*	*
8G\L	8ee/L 8gg	8cc\L
8G\	8ee/J 8gg	8cc\J
8G\	8dd\L 8gg 8bbn	8ryy
8G\J	8dd\J 8gg 8bb	8ryy
*Xtremolo	*	*
*	*v	*v
=8	=8
8C/L	8ee\L 8gg 8ccc
8C/J	8ee\J 8gg 8ccc
4C/	4ee\ 4gg 4ccc
!!LO:LB:g=original
=9:|!|:	=9:|!|:
8E\L	8gg\L 8bb-X
8E\	8gg\ 8bb-
8F\	8ff\ 8aa
8F\J	8ff\J 8aa
=10	=10
8c\L	8ee\L 8gg
8c\J	8ee\J 8gg
4c\	4ee\ 4gg
=11	=11
8c\L	8cc\L 8ee
8c\	8cc\ 8ee
8F\	8a\ 8ff
8F\J	8f\J 8a
=12	=12
8c\L	8e/L 8g
8c\J	8e/J 8g
4c\	4e/ 4g
=13	=13
*tremolo	*
8F\L	8a/L 8cc
8F\	8a/ 8cc
8F\	8b-/ 8dd
8F\J	8b-/J 8dd
*Xtremolo	*
=14	=14
8F\L	8a/L 8cc
8F\J	8a/J 8cc
4F\	4cc\ 4ff\ 4aa\
=15	=15
8B-\L	8b-\L 8dd 8gg
8B-\J	8b-\J 8dd 8gg
8c\L	8g\L 8cc 8ee
8c\J	8g\J 8cc 8ee
=16	=16
8F\L	8a\L 8cc 8ff
8F\J	8a\J 8cc 8ff
4F\	4a\ 4cc 4ff
=:|!	=:|!
*-	*-
!!!system-decoration: {(s1,s2)}
!!!RDF**kern: > = above
!!!RDF**kern: < = below
!!!EED: Mateusz Mrugas
!!!EST: 2020-11-22
!!!AIN: 1 piano
!!!ENC: Tomasz Grochalski
!!!END: 2020-06-14
